24x24/actions/precondition.svg

<svg xmlns="http://www.w3.org/2000/svg" width="24" height="24"><path style="fill:currentColor;fill-opacity:1;stroke:none;color:#555e70" d="M11 5a9 6 0 0 0-9 6 9 6 0 0 0 9 6 9 6 0 0 0 9-6 9 6 0 0 0-9-6zm0 1a8 5 0 0 1 8 5 8 5 0 0 1-8 5 8 5 0 0 1-8-5 8 5 0 0 1 8-5z" transform="translate(1 1)"/></svg>

<svg xmlns="http://www.w3.org/2000/svg" viewBox="0 0 24 24" width="24" height="24">
  <defs id="defs3051">
    <style type="text/css" id="current-color-scheme">
      .ColorScheme-Text {
        color:#555e70;
      }
      </style>
  </defs>
  <g transform="translate(1,1)">
    <path style="fill:currentColor;fill-opacity:1;stroke:none" d="M 11 5 A 9 6 0 0 0 2 11 A 9 6 0 0 0 11 17 A 9 6 0 0 0 20 11 A 9 6 0 0 0 11 5 z M 11 6 A 8 5 0 0 1 19 11 A 8 5 0 0 1 11 16 A 8 5 0 0 1 3 11 A 8 5 0 0 1 11 6 z " class="ColorScheme-Text"/>
  </g>
</svg>
